!!!COM: Bach, Johann Sebastian
!!!OTA: Das wohltemperirte Clavier
!!!OPR: Das wohltemperierte Klavier
!!!OTL: Fuga 23, Vol. 2
!!!XEN: The Well-Tempered Clavier, Volume 2, Fugue 23.
!!!ONB: B major, 4-part
!!!SCT: BWV 892b
!!!YEC: Copyright 1994, David Huron
!!!YEM: Rights to all derivative electronic formats reserved.
**kern	**kern	**kern	**kern
*staff2	*staff2	*staff1	*staff1
*clefF4	*clefF4	*clefG2	*clefG2
*k[f#c#g#d#a#]	*k[f#c#g#d#a#]	*k[f#c#g#d#a#]	*k[f#c#g#d#a#]
*M2/2	*M2/2	*M2/2	*M2/2
*B:	*B:	*B:	*B:
*MM124	*MM124	*MM124	*MM124
=1	=1	=1	=1
2BB	1r	1r	1r
2D#	.	.	.
=2	=2	=2	=2
2G#	1r	1r	1r
2E	.	.	.
=3	=3	=3	=3
2C#	1r	1r	1r
2A#	.	.	.
=4	=4	=4	=4
4B	1r	1r	1r
8A#	.	.	.
8G#	.	.	.
4F#	.	.	.
4E	.	.	.
=5	=5	=5	=5
8D#	2F#	1r	1r
8C#	.	.	.
2E	.	.	.
.	2A#	.	.
8D#	.	.	.
8C#	.	.	.
=6	=6	=6	=6
8BB	2d#	1r	1r
8F#	.	.	.
2A#	.	.	.
.	2B	.	.
8G#	.	.	.
8F#	.	.	.
=7	=7	=7	=7
8E#	2G#	1r	1r
8B	.	.	.
2d#	.	.	.
.	2e#	.	.
8c#	.	.	.
8B	.	.	.
=8	=8	=8	=8
4A#	4f#	1r	1r
4B	8e#	.	.
.	8d#	.	.
4A#	4c#	.	.
4G#	4B	.	.
=9	=9	=9	=9
4F#	8A#	1r	1r
.	8G#	.	.
8E#	2B	.	.
8D#	.	.	.
8C#	.	.	.
8D#	.	.	.
[4En	8A#	.	.
.	8G#	.	.
=10	=10	=10	=10
4E]	8F#	2B	1r
.	8G#	.	.
8D#	2An	.	.
8C#	.	.	.
[2BB	.	2d#	.
.	8G#	.	.
.	8F#	.	.
=11	=11	=11	=11
4.BB]	8E	2g#	1r
.	8B	.	.
.	2d#	.	.
8BB#	.	.	.
8C#	.	2e	.
8D#	.	.	.
8E	8c#	.	.
8C#	8B	.	.
=12	=12	=12	=12
4.F#	8A#	2c#	1r
.	8e	.	.
.	2g#	.	.
8E	.	.	.
8D#	.	2a#	.
8C#	.	.	.
4D#	8f#	.	.
.	8e	.	.
=13	=13	=13	=13
4G#	4d#	4b	1r
2GG#	4e	8a#	.
.	.	8g#	.
.	4d#	4f#	.
4AA#	4c#	4e	.
=14	=14	=14	=14
4BB	4B	8d#	2f#
.	.	8c#	.
4r	8A#	2e	.
.	8G#	.	.
2r	[2F#	.	2a#
.	.	8d#	.
.	.	8c#	.
=15	=15	=15	=15
1r	4.F#]	8B	2dd#
.	.	8f#	.
.	.	2a#	.
.	8F##	.	.
.	8G#	.	2b
.	8A#	.	.
.	8B	8g#	.
.	8G#	8f#	.
=16	=16	=16	=16
1r	4.c#	8e#	2g#
.	.	8b	.
.	.	2dd#	.
.	8B	.	.
.	8A#	.	2ee#
.	8G#	.	.
.	4A#	8cc#	.
.	.	8b	.
=17	=17	=17	=17
1r	4d#	4a#	4ff#
.	2D#	4b	8ee#
.	.	.	8dd#
.	.	4a#	4cc#
.	4E#	4g#	4b
=18	=18	=18	=18
1r	4F#	4f#	8a#
.	.	.	8g#
.	4G#	8e#	2b
.	.	8d#	.
.	4A#	8c#	.
.	.	8d#	.
.	4F#	[4en	8a#
.	.	.	8g#
=19	=19	=19	=19
2BB	4B	4e]	8f#
.	.	.	8g#
.	8F#	8d#	2an
.	8E	8c#	.
2D#	4F#	8B	.
.	.	8c#	.
.	[4B	4d#	8g#
.	.	.	8f#
=20	=20	=20	=20
2G#	4.B]	4.e	8e
.	.	.	8b
.	.	.	2dd#
.	8A#	8f#	.
2E	8B	2g#	.
.	8G#	.	.
.	8A#	.	8cc#
.	8B	.	8b
=21	=21	=21	=21
2C#	[2c#	4.a#	8a#
.	.	.	8ee
.	.	.	2gg#
.	.	8b	.
2A#	8c#]	[2cc#	.
.	8c#	.	.
.	[4f#	.	8ff#
.	.	.	8ee
=22	=22	=22	=22
4B	4f#]	8cc#]	[1dd#
.	.	8cc#	.
8d#	8f#	8b	.
8c#	8e	8a#	.
4B	4d#	8g#	.
.	.	8f##	.
4A#	4c#	8g#	.
.	.	8f##	.
=23	=23	=23	=23
[2G#	4B	8g#	4dd#]
.	.	8b	.
.	4c#	8a#	4ff##
.	.	8cc#	.
8G#]	4d#	4b	4gg#
8F##	.	.	.
8G#	4e	[4a#	4cc#
8F##	.	.	.
=24	=24	=24	=24
4G#	4.d#	8a#]	[1b
.	.	8a#	.
8B	.	8g#	.
8A#	8c#	8f#	.
4G#	4B	8e#	.
.	.	8f#	.
4F#	4dn	8e#	.
.	.	8f#	.
=25	=25	=25	=25
2E#	4.c#	2g#	8b]
.	.	.	8a#
.	.	.	[2b
.	8G#	.	.
2F#	8A#	4c#	.
.	8B	.	.
.	[4c#	[4f#	8b]
.	.	.	8a#
=26	=26	=26	=26
1C#	4c#]	2f#]	8g#
.	.	.	8b
.	8B	.	2dd#
.	8A#	.	.
.	8G#	2e#	.
.	8F#	.	.
.	4G#	.	8cc#
.	.	.	8b
=27	=27	=27	=27
2FF#	2F#	2f#	2a#
2r	2A#	2r	2r
=28	=28	=28	=28
1r	2d#	1r	4r
.	.	.	8ff#
.	.	.	8ee
.	2B	.	8dd#
.	.	.	8ee
.	.	.	8ff#
.	.	.	8dd#
=29	=29	=29	=29
1r	2G#	1r	8b
.	.	.	8cc#
.	.	.	8dd#
.	.	.	8b
.	2e#	.	8g#
.	.	.	8a#
.	.	.	[4b
=30	=30	=30	=30
1r	[2f#	1r	8b]
.	.	.	8g#
.	.	.	8a#
.	.	.	8b
.	8f#]	.	[2cc#
.	8en	.	.
.	8d#	.	.
.	8c#	.	.
=31	=31	=31	=31
4r	2.d#	1r	8cc#]
.	.	.	8f#
8B	.	.	8g#
8A#	.	.	8a#
8G#	.	.	[2b
8A#	.	.	.
8B	4d#	.	.
8G#	.	.	.
=32	=32	=32	=32
8E	8c#	1r	2b]
8F#	8d#	.	.
8G#	2e	.	.
8E	.	.	.
8C#	.	.	8a#
8D#	.	.	8b
[4E	4A#	.	8cc#
.	.	.	8a#
=33	=33	=33	=33
8E]	[1B	1r	4f#
8C#	.	.	.
4D#	.	.	8bb
.	.	.	8aa#
4E	.	.	8gg#
.	.	.	8aa#
4BB	.	.	8bb
.	.	.	8gg#
=34	=34	=34	=34
8C#	2B_	1r	8ee
8D#	.	.	8ff#
8E	.	.	8gg#
8C#	.	.	8ee
2F#	8B]	.	8cc#
.	8A#	.	8dd#
.	8G#	.	[4ee
.	8A#	.	.
=35	=35	=35	=35
4BB	8B	2B	4ee]
.	8F#	.	.
4r	8B	.	8dd#
.	8A#	.	8cc#
2r	8G#	2d#	[2b
.	8A#	.	.
.	8B	.	.
.	8G#	.	.
=36	=36	=36	=36
8r	4E	2g#	4b]
8BB	.	.	.
8E	4r	.	8cc#
8D#	.	.	8b
8C#	2r	2e	4a#
8D#	.	.	.
8E	.	.	4g#
8C#	.	.	.
=37	=37	=37	=37
8AA#	4r	2c#	4f##
8BB	.	.	.
8C#	4e	.	4r
8AA#	.	.	.
8FF##	4d#	2a#	4r
8GG#	.	.	.
[4AA#	4c#	.	8g#
.	.	.	8f#
=38	=38	=38	=38
8AA#]	2d#	[2b	4g#
8GG#	.	.	.
8AA#	.	.	4r
8BB	.	.	.
[2C#	2e	8b]	2r
.	.	8b	.
.	.	8a#	.
.	.	8g#	.
=39	=39	=39	=39
8C#]	8d#	[2f#	1r
8FF#	8c#	.	.
8GG#	8B	.	.
8AA#	8c#	.	.
[2BB	2dn	8f#]	.
.	.	8an	.
.	.	8g#	.
.	.	8f#	.
=40	=40	=40	=40
8BB]	[2c#	8e#	1r
8AA#	.	8f#	.
8BB	.	8g#	.
8C#	.	8e#	.
4D#	8c#]	[2f#	.
.	8B	.	.
4C#	8A#	.	.
.	8B	.	.
=41	=41	=41	=41
8BB	[2G#	2f#]	1r
8GG#	.	.	.
8AA#	.	.	.
8BB	.	.	.
4C#	8G#]	2e#	.
.	8G#	.	.
[4BB	8A#	.	.
.	8B	.	.
=42	=42	=42	=42
8BB]	[2c#	2f#	2f#
8BB	.	.	.
8AA#	.	.	.
8GG#	.	.	.
4FF#	8c#]	2r	2a#
.	8e	.	.
4r	8d#	.	.
.	8c#	.	.
=43	=43	=43	=43
8r	4B	4r	2dd#
8D#	.	.	.
8E#	4r	8b	.
8F##	.	8a#	.
8G#	2r	8g#	2b
8F#	.	8a#	.
[4G#	.	8b	.
.	.	8g#	.
=44	=44	=44	=44
4G#]	4r	8e#	2g#
.	.	8f#	.
2G#	4B	8g#	.
.	.	8e#	.
.	4.A#	8c##	2ee#
.	.	8d#	.
4C##	.	[4e#	.
.	8G#	.	.
=45	=45	=45	=45
4D#	4F#	8e#]	[2ff#
.	.	8d#	.
4r	4r	8e#	.
.	.	8f#	.
2r	2r	[2g#	8ff#]
.	.	.	8ee#
.	.	.	8ff#
.	.	.	8gg#
=46	=46	=46	=46
1r	1r	8g#]	[2aa#
.	.	8f#	.
.	.	8g#	.
.	.	8a#	.
.	.	[2b	8aa#]
.	.	.	8aa#
.	.	.	8gg#
.	.	.	8ff#
=47	=47	=47	=47
1r	1r	8b]	4ee#
.	.	8b	.
.	.	8a#	8ff##
.	.	8g#	8gg#
.	.	8a#	8ff##
.	.	8b	8gg#
.	.	[4cc#	8aa#
.	.	.	8ff##
=48	=48	=48	=48
2GG#	1r	8cc#]	2dd#
.	.	8cc#	.
.	.	8b	.
.	.	8a#	.
2BB	.	8g#	2r
.	.	8a#	.
.	.	8b	.
.	.	8g#	.
=49	=49	=49	=49
2E	1r	8c#	4r
.	.	8B#	.
.	.	2c#	8gg#
.	.	.	8ff#
2C#	.	.	8ee
.	.	.	8ff#
.	.	[4g#	8gg#
.	.	.	8ee
=50	=50	=50	=50
2AA#	1r	4g#]	8cc#
.	.	.	8dd#
.	.	4f##	8ee
.	.	.	8cc#
2F##	.	4r	8a#
.	.	.	8b
.	.	8r	[4cc#
.	.	8a#	.
=51	=51	=51	=51
[2G#	1r	4.d#	8cc#]
.	.	.	8a#
.	.	.	[4b
.	.	8f#	.
8G#]	.	8e#	4.b]
8F#	.	8g#	.
8E#	.	[4c#	.
8G#	.	.	[8b
=52	=52	=52	=52
[2F#	1r	4.c#]	8b]
.	.	.	8g#
.	.	.	[4a#
.	.	8en	.
8F#]	.	8d#	4.a#]
8E	.	8f#	.
8D#	.	[4B	.
8F#	.	.	[8an
=53	=53	=53	=53
4.E	2E	4.B]	8a]
.	.	.	8f##
.	.	.	[4g#
8D#	.	8B#	.
8C#	2G#	4.e	8g#]
8D#	.	.	8b#
8E	.	.	[4cc#
8C#	.	8e#	.
=54	=54	=54	=54
8AAn	2c#	4f#	4cc#]
8C#	.	.	.
2F#	.	8an	4cc#
.	.	8g#	.
.	2An	8f#	[2dd#
.	.	8g#	.
[4BB#	.	8a	.
.	.	8f#	.
=55	=55	=55	=55
8BB#]	2F#	8d#	4dd#]
8C#	.	8e	.
8D#	.	8f#	2an
8BB#	.	8d#	.
8GG#	2d#	8B#	.
8AA#	.	8c#	.
8BB#	.	[4d#	8g#
8GG#	.	.	8f#
=56	=56	=56	=56
8C#	2.e	4d#]	4e
8D#	.	.	.
8E	.	2c#	4g#
8C#	.	.	.
8AAn	.	.	[2cc#
8BB	.	.	.
8C#	4c#	4e	.
8AA	.	.	.
=57	=57	=57	=57
8FF#	2f#	2an	4cc#]
8GG#	.	.	.
8AAn	.	.	8ff#
8FF#	.	.	8ee
8DD#	4r	4r	4ff#
8EE	.	.	.
8FF#	4f#	[4a#	4dd#
8DD#	.	.	.
=58	=58	=58	=58
8GG#	4d#	4a#]	4b
8FF#	.	.	.
8EE	4e	8g#	8cc#
8FF#	.	8an	8dd#
8GG#	4r	4b	4ee
8FF#	.	.	.
8GG#	4c#	[4f#	4an
8AAn	.	.	.
=59	=59	=59	=59
1BB	[2B	8f#]	4.g#
.	.	8d#	.
.	.	[4e	.
.	.	.	8an
.	4.B]	8e]	2f#
.	.	8c#	.
.	.	4d#	.
.	8An	.	.
=60	=60	=60	=60
2E	2G#	8e	2e
.	.	8b	.
.	.	[4ee	.
2r	2B	8ee]	4r
.	.	8cc#	.
.	.	4dd#	8bb
.	.	.	8aan
=61	=61	=61	=61
1r	2e	4r	8gg#
.	.	.	8aan
.	.	2g#	8bb
.	.	.	8gg#
.	2c#	.	8ee
.	.	.	8ff#
.	.	[4e	8gg#
.	.	.	8ee
=62	=62	=62	=62
1r	2A#	4e]	8cc#
.	.	.	8dd#
.	.	8cc#	2ee
.	.	8b	.
.	2f##	8a#	.
.	.	8b	.
.	.	8cc#	[4dd#
.	.	8a#	.
=63	=63	=63	=63
1r	8g#	2b	4dd#]
.	8f#	.	.
.	8e#	.	[4gg#
.	8d#	.	.
.	8c##	[2a#	8gg#]
.	8d#	.	8ff#
.	8e#	.	4gg#
.	8c##	.	.
=64	=64	=64	=64
1r	[2d#	8a#]	[1ff#
.	.	8een	.
.	.	8dd#	.
.	.	8cc#	.
.	8d#]	8b#	.
.	8en	8cc#	.
.	8f#	8dd#	.
.	8d#	8b#	.
=65	=65	=65	=65
1r	8e	2g#	4ff#]
.	8d#	.	.
.	8c#	.	[4ee
.	8B	.	.
.	8A#	4.f##	8ee]
.	8B	.	8dd#
.	8c#	.	4ee
.	8A#	[8cc#	.
=66	=66	=66	=66
1r	[2B	8cc#]	[1dd#
.	.	8cc#	.
.	.	8b	.
.	.	8a#	.
.	8B]	8g#	.
.	8c#	8a#	.
.	8d#	8b	.
.	8B	8g#	.
=67	=67	=67	=67
1r	8c#	4e#	4dd#]
.	8B	.	.
.	8A#	8f##	[4cc#
.	8G#	8g#	.
.	8F##	4.a#	8cc#]
.	8G#	.	8b
.	8A#	.	4cc#
.	8F##	[8a#	.
=68	=68	=68	=68
1r	[4G#	8a#]	4.b
.	.	8f##	.
.	16G#]	[4g#	.
.	16F#	.	.
.	16E	.	8b
.	16D#	.	.
.	8C#	8g#]	4.ee
.	8B	8g#	.
.	8A#	[4cc#	.
.	8F#	.	8ee
=69	=69	=69	=69
1r	[4B	8cc#]	4.dd#
.	.	8a#	.
.	16B]	[4b	.
.	16A#	.	.
.	16G#	.	8dd#
.	16F#	.	.
.	8E	8b]	4.gg#
.	8d#	8b	.
.	8c#	[4ee	.
.	8A#	.	8gg#
=70	=70	=70	=70
1r	[4d#	8ee]	4.ff#
.	.	8cc#	.
.	16d#]	[4dd#	.
.	16c#	.	.
.	16B	.	8ff#
.	16A#	.	.
.	8G#	8dd#]	4.bb
.	8f#	8dd#	.
.	8e#	[4gg#	.
.	8c#	.	8bb
=71	=71	=71	=71
1r	8f#	8gg#]	4.aa#
.	8g#	8ee#	.
.	8a#	[4ff#	.
.	8f#	.	8cc#
.	8d#	16ff#]	4.aan
.	.	16gg#	.
.	8en	16ff#	.
.	.	16een	.
.	8f#	[4dd#	.
.	8d#	.	8ff#
=72	=72	=72	=72
1r	8B#	8dd#]	[1gg#
.	8c#	8ee	.
.	8d#	8ff#	.
.	8B#	8dd#	.
.	8c#	8ee	.
.	8d#	8b#	.
.	[4e	8cc#	.
.	.	8ee	.
=73	=73	=73	=73
1r	8e]	2a#	8gg#]
.	8e	.	8gg#
.	8d#	.	8ff#
.	8c#	.	8ee
.	8B	[2bn	8dd#
.	8c#	.	8ee
.	8d#	.	8ff#
.	8B	.	8dd#
=74	=74	=74	=74
1r	8G#	8b]	1ee
.	8A#	8cc#	.
.	8B	8dd#	.
.	8G#	8b	.
.	8A#	8cc#	.
.	8B	8g#	.
.	[4c#	8a#	.
.	.	8cc#	.
=75	=75	=75	=75
2BB	8c#]	4f#	2.dd#
.	8B	.	.
.	8A#	4b	.
.	8G#	.	.
2D#	8F##	[2a#	.
.	8G#	.	.
.	8A#	.	4cc#
.	8F##	.	.
=76	=76	=76	=76
2G#	8G#	4a#]	[2b
.	8B	.	.
.	8c#	8g#	.
.	8d#	8f##	.
2E	4e	4.g#	8b]
.	.	.	8b
.	[4B	.	8ee
.	.	8b	8ff#
=77	=77	=77	=77
2C#	8B]	[2ee	[2gg#
.	8G#	.	.
.	8A#	.	.
.	8B	.	.
2A#	4c#	8ee]	8gg#]
.	.	8ee	8gg#
.	[4f#	8dd#	8ff#
.	.	8cc#	8ee
=78	=78	=78	=78
[2B	8f#]	[2b	[1dd#
.	8g#	.	.
.	8f#	.	.
.	8e	.	.
8B]	[2d#	8b]	.
8c#	.	8f##	.
8B	.	8g#	.
8A#	.	8a#	.
=79	=79	=79	=79
[2G#	8d#]	8b	1dd#_
.	8e	8a#	.
.	8d#	8cc#	.
.	8c#	8f##	.
8G#]	[2B	[2g#	.
8A#	.	.	.
8G#	.	.	.
8F#	.	.	.
=80	=80	=80	=80
[2E#	4B]	4g#]	8dd#]
.	.	.	8dd#
.	4r	4r	8cc##
.	.	.	8b#
8E#]	2r	2r	8cc#
8F#	.	.	8dd#
8E#	.	.	8ee#
8D#	.	.	8ff#
=81	=81	=81	=81
8C##	1r	4r	2gg#
8AA#	.	.	.
8BB#	.	2ee#	.
8C##	.	.	.
8D#	.	.	[2ff#
8E#	.	.	.
8F#	.	8dd#	.
8D#	.	8cc#	.
=82	=82	=82	=82
8G#	1r	4bn	2ff#_
8F#	.	.	.
8G#	.	4dd#	.
8A#	.	.	.
8B	.	[2g#	8ff#]
8A#	.	.	8ff#
8B	.	.	8ee#
8G#	.	.	8dd#
=83	=83	=83	=83
[2A#	1r	8g#]	[2cc##
.	.	8b	.
.	.	8a#	.
.	.	8g#	.
4.A#]	.	2f#	8cc##]
.	.	.	8a#
.	.	.	[4dd#
8G##	.	.	.
=84	=84	=84	=84
2A#	1r	[1e#	8dd#]
.	.	.	8b#
.	.	.	8cc##
.	.	.	8ee#
2AA#	.	.	8g#
.	.	.	8bn
.	.	.	8a#
.	.	.	8g#
=85	=85	=85	=85
[2D#	2F#	8e#]	1f#
.	.	8e#	.
.	.	8d#	.
.	.	8c##	.
8D#]	2A#	2d#	.
8En	.	.	.
8D#	.	.	.
8C#	.	.	.
=86	=86	=86	=86
8BB	2d#	4r	1r
8AA#	.	.	.
[4BB	.	8f#	.
.	.	8en	.
8BB]	2B	8d#	.
8C#	.	8e	.
[4D#	.	8f#	.
.	.	8d#	.
=87	=87	=87	=87
8D#]	2G#	8B	1r
8C#	.	8c#	.
8BB	.	8d#	.
8D#	.	8B	.
8C#	2e#	8G#	.
8BB	.	8A#	.
8AA#	.	[4B	.
8GG#	.	.	.
=88	=88	=88	=88
8FF#	[2f#	8B]	1r
8C#	.	8B	.
[4F#	.	8A#	.
.	.	8G#	.
8F#]	8f#]	4A#	.
8En	8c#	.	.
8D#	[4f#	[4an	.
8C#	.	.	.
=89	=89	=89	=89
8BB#	4f#]	4a]	1r
8C#	.	.	.
8D#	8B#	4an	.
8BB#	8f#	.	.
8GG#	4e	4g#	.
8AA#	.	.	.
8BB#	[4d#	[4f#	.
8GG#	.	.	.
=90	=90	=90	=90
8C#	4d#]	4f#]	1r
8D#	.	.	.
[4E	8c#	8e	.
.	8B#	8d#	.
8E]	8c#	8e	.
8D#	8d#	8f#	.
8C#	[4e	[4g#	.
8BBn	.	.	.
=91	=91	=91	=91
8AA#	4e]	4g#]	1r
8BB	.	.	.
8C#	8A#	4g#	.
8AA#	8e	.	.
8FF#	4d#	4f#	.
8GG#	.	.	.
8AA#	[4c#	[4e	.
8FF#	.	.	.
=92	=92	=92	=92
8BB	4c#]	4e]	1r
8C#	.	.	.
[4D#	8B	8d#	.
.	8A#	8c#	.
8D#]	8B	8d#	.
8C#	8c#	8e	.
8BB	[4d#	[4f#	.
8D#	.	.	.
=93	=93	=93	=93
[2G#	8d#]	8f#]	2b
.	8e	8g#	.
.	8d#	8f#	.
.	8c#	8e	.
8G#]	8B	4d#	2dd#
8An	8c#	.	.
8G#	8B	[4b	.
8F#	8An	.	.
=94	=94	=94	=94
[1E	8G#	4b]	2gg#
.	8B	.	.
.	8e	2g#	.
.	8d#	.	.
.	8c#	.	2ee
.	8d#	.	.
.	8e	4cc#	.
.	8c#	.	.
=95	=95	=95	=95
2.E]	8A#	8f#	2cc#
.	8B	8g#	.
.	8c#	8a#	.
.	8A#	8f#	.
.	8F#	8cc#	2aa#
.	8G#	8ee	.
8F#	[4A#	8dd#	.
8E	.	8cc#	.
=96	=96	=96	=96
[2D#	8A#]	8ff#	2bb
.	8F#	8ee	.
.	8B	8dd#	.
.	8A#	8ff#	.
8D#]	[2G#	[2b	[2ee
8C#	.	.	.
8BB	.	.	.
8D#	.	.	.
=97	=97	=97	=97
[2C#	8G#]	8b]	1ee_
.	8F#	8a#	.
.	8E	8g#	.
.	8G#	8b	.
8C#]	[2c#	8a#	.
8D#	.	8b	.
8E	.	8cc#	.
8C#	.	8a#	.
=98	=98	=98	=98
[2A#	8c#]	[2f#	8ee]
.	8B	.	8dd#
.	8c#	.	8ee
.	8B	.	8dd#
8A#]	4c#	4f#]	4ee
8G#	.	.	.
8F#	4r	4r	4r
8G#	.	.	.
=99	=99	=99	=99
[2An	8f#	[2b	8dd#
.	8e	.	8cc#
.	8f#	.	8dd#
.	8e	.	8cc#
8A]	4f#	4b]	4dd#
8G#	.	.	.
8F#	4r	4r	4r
8A	.	.	.
=100	=100	=100	=100
1G#	4r	2r	8r
.	.	.	8e#
.	4B	.	8ddn
.	.	.	8cc#
.	2dn	4r	8b
.	.	.	8cc#
.	.	4e#	8dd
.	.	.	8b
=101	=101	=101	=101
2B	2dn	2e#	8g#
.	.	.	8an
.	.	.	8b
.	.	.	8g#
4r	4r	4r	8e#
.	.	.	8ddn
4E#	4G#	[4c#	8cc#
.	.	.	8b
=102	=102	=102	=102
8F#	4F#	8c#]	2a#
8En	.	8g#	.
8D#	4r	8f#	.
8C#	.	8e	.
8BB	2r	4.d#	8r
8C#	.	.	8f#
8D#	.	.	[4b
8EE#	.	8dn	.
=103	=103	=103	=103
1FF#	4r	8c#	4b]
.	.	8d#	.
.	8r	[4e	8a#
.	8C#	.	8g#
.	2F#	8e]	2a#
.	.	8g#	.
.	.	8f#	.
.	.	8e	.
=104	=104	=104	=104
1BB;	1F#;	1d#;	1b;
==	==	==	==
*-	*-	*-	*-
!!!CDT: 1685/3/-1750/7/28
!!!OCY: Deutschland
!!!PPP: Leipzig
!!!ODT: 1738//-1742//
!!!PDT: 1739//-1742//
!!!AFR: fuga; fugue
!!!AST: polyphony
!!!AMT: simple duple
!!!SCA: Bach-Werke-Verzeichnis
!!!YOR: Bach Gesellschaft
!!!SMS: British Library, various
!!!AIN: cemba; clavi
!!!EEV: 1.0
!!!RDT: 1986 December 15
!!!YER: 1994 August 10
!!!EFL: 47/48
!!!VTS: 1437613856
